!!!!SEGMENT: pl-kk--kk-i-58--003_anonim--missa-sanctus.krn
!!!cenid: 17xx:2242
!!!COM: Anonim
!!!COM-rismid: pe30004985
!!!CDT:
!!!CNT:
!!!OPR: Missa
!!!OTL: Sanctus
!!!OMV: 003
!!!PDT:
!!!AGN: Sacred; Mass
!!!SMS-siglum: PL-Kk
!!!SMS-shelfmark: Kk.I.58
!!!SMS-shelfwork: 001-003 M
!!!SMS-variant: Baſso.: PL-Kk Kk.I.58:0020
!!!SMS-altvar: Baſso.: PL-Kk Kk.I.58:0025-0026
!!!NIFC-rismid: 1001156758
!!!URL-scan: http://repozytorium.nifc.pl/skany/pl-kk-nut--i-58
!!!ONB-nifc: UWAGA: części Mszy: 1. Kyrie, 2. Et in terra, 3. Sanctus, 4. Benedictus, 5. Agnus Dei.
**kern	**text	**kern	**text	**kern	**text	**kern	**text
*part4	*part4	*part3	*part3	*part2	*part2	*part1	*part1
*staff4	*staff4	*staff3	*staff3	*staff2	*staff2	*staff1	*staff1
*Iempty	*	*Itenor	*	*Ialto	*	*Ivox	*
*I"Baſso.	*	*I"Tenore	*	*I"Alto.	*	*I"Canto.	*
*I'B	*	*I'T	*	*I'A	*	*I'S	*
*clefF4	*	*clefC4	*	*clefC3	*	*clefC1	*
*k[b-]	*	*k[b-]	*	*k[b-]	*	*k[b-]	*
*F:	*	*F:	*	*F:	*	*F:	*
*M2/1	*	*M2/1	*	*M2/1	*	*M2/1	*
*met(C|)	*	*met(C|)	*	*met(C|)	*	*met(C|)	*
=1-	=1-	=1-	=1-	=1-	=1-	=1-	=1-
!LO:TX:t=P:problem:przy kluczu B- BB-	!	!	!	!	!	!	!
1F	San-	1A	San-	1c	San-	1f	San-
*2\right	*	*2\right	*	*2\right	*	*	*
2F\	.	2B-\	.	2d\	.	1g	.
2E\	.	2c\	.	2e\	.	.	.
=2-	=2-	=2-	=2-	=2-	=2-	=2-	=2-
*	*	*	*	*	*	*2\right	*
!LO:TX:t=P:problem:kreska pseudotaktowa	!	!	!	!	!	!	!
1D	.	2c\	.	1f	.	2a\	.
.	.	2Bn\	.	.	.	2dd\	.
!	!	!LO:TX:t=P:problem:kreska pseudotaktowa	!	!LO:TX:t=P:problem:kreska pseudotaktowa	!	!LO:TX:t=P:problem:kreska pseudotaktowa	!
2C,</	-ctus	1c	-ctus	1e	-ctus	1g	-ctus
2C/	San-	.	.	.	.	.	.
=3-	=3-	=3-	=3-	=3-	=3-	=3-	=3-
2C/	.	2c\	San-	2e\	San-	2g\	San-
2D/	.	1B-X	.	1d	.	4b-\	.
.	.	.	.	.	.	4a\	.
2E\	.	.	.	.	.	2g\	.
!LO:TX:t=P:problem:kreska pseudotaktowa	!	!	!	!	!	!	!
2F\	.	2A/	.	2c\	.	2a\	.
=4-	=4-	=4-	=4-	=4-	=4-	=4-	=4-
2F\	.	1B-	.	1d	.	1g	.
2E\	.	.	.	.	.	.	.
!LO:TX:t=P:problem:kreska pseudotaktowa	!	!LO:TX:t=P:problem:kreska pseudotaktowa	!	!LO:TX:t=P:problem:kreska pseudotaktowa	!	!LO:TX:t=P:problem:kreska pseudotaktowa	!
1F	-ctus	1A	-ctus	1c	-ctus	1f	-ctus
=5-	=5-	=5-	=5-	=5-	=5-	=5-	=5-
!	!	!	!	!LO:TX:t=P:problem:kreska pseudotaktowa	!	!LO:TX:a:t=1.	!
2.F\	San-	2r	.	1r	.	1r	.
.	.	2c\	San-	.	.	.	.
4E\	.	.	.	.	.	.	.
*	*	*	*	*	*ij	*	*
4D\	.	4c\	.	1f	Sa-	2r	.
4E\	.	4B-\	.	.	.	.	.
!LO:TX:t=P:problem:kreska pseudotaktowa	!	!LO:TX:t=P:problem:kreska pseudotaktowa	!	!	!	!	!
2F\	.	2A\	.	.	.	1cc\	San-
=6-	=6-	=6-	=6-	=6-	=6-	=6-	=6-
2F\	.	2A\	.	1f	.	.	.
2D\	.	1d	.	.	.	1b-	.
2E\	.	.	.	2g\	-ctus	.	.
2F\	.	2c\	.	1f\	San-	2a\	.
=7-	=7-	=7-	=7-	=7-	=7-	=7-	=7-
!	!	!LO:TX:t=P:problem:kreska pseudotaktowa	!	!	!	!	!
1C	.	1c	.	.	.	1g	.
.	.	.	.	2e\	.	.	.
!	!	!LO:LB:g=original	!	!	!	!	!
!LO:TX:t=P:problem:kreska pseudotaktowa	!	!LO:TX:t=P:problem:kreska pseudotaktowa	!	!LO:TX:t=P:problem:kreska pseudotaktowa	!	!LO:TX:t=P:problem:kreska pseudotaktowa	!
1F	-ctus	1c	-ctus	1f	-ctus	1a	-ctus
*	*	*	*	*	*Xij	*	*
!LO:LB:g=original	!	!	!	!LO:LB:g=original	!	!LO:LB:g=original	!
=8-	=8-	=8-	=8-	=8-	=8-	=8-	=8-
!LO:TX:t=P:problem:kreska pseudotaktowa	!	!	!	!	!	!	!
!LO:TX:a:t=1.	!	!LO:TX:a:t=1.	!	!	!	!	!
1r	.	1r	.	2e\	Do-	2cc\	Do-
.	.	.	.	4e\	-mi-	4b-\	-mi-
.	.	.	.	4e\	-nus	4b-\	-nus
2F\	Do-	2c\	Do-	2f\	De-	2a\	De-
!	!	!	!	!LO:TX:t=P:problem:kreska pseudotaktowa	!	!LO:TX:t=P:problem:kreska pseudotaktowa	!
4F\	-mi-	4c\	-mi-	2f\	-us	2a\	-us
4F\	-nus	4c\	-n(us)	.	.	.	.
=9-	=9-	=9-	=9-	=9-	=9-	=9-	=9-
!	!	!	!	!LO:TX:t=P:problem:kreska pseudotaktowa	!	!	!
!	!	!	!	!LO:TX:a:t=1.	!	!	!
2E\	DE-	1c	DE-	1r	.	2g/	Do-
2E\	-US	.	.	.	.	4g/	-mi-
.	.	.	.	.	.	4g/	-n(us)
!	!	!LO:TX:t=P:problem:kreska pseudotaktowa	!	!	!	!	!
2C/	Do-	1c	-US	2e\	Do-	2g/	DE-
!	!	!	!	!	!	!LO:TX:t=P:problem:kreska pseudotaktowa	!
4C/	-mi-	.	.	4e\	-mi-	2g/	-US
4C/	-n(us)	.	.	4e\	-n(us)	.	.
=10-	=10-	=10-	=10-	=10-	=10-	=10-	=10-
2G\	DE-	2BnX\	Sa-	2d\	De-	1.g	Sa-
2C/	-US	1c	.	2e\	-us	.	.
2.G\	Sa-	.	.	2.d\	Sa-	.	.
.	.	2BnX\	-ba-	.	.	2g/	-ba-
4G\	-ba-	.	.	4d\	-ba-	.	.
=11-	=11-	=11-	=11-	=11-	=11-	=11-	=11-
!LO:N:vis=1	!	!LO:N:vis=1	!	!LO:N:vis=1	!	!LO:N:vis=1	!
0C;	-oth.	0c;	-oth	0e;	-oth.	0g;	-oth.
=12||	=12||	=12||	=12||	=12||	=12||	=12||	=12||
*M2/1	*	*M2/1	*	*M2/1	*	*M2/1	*
*met(C|)	*	*met(C|)	*	*met(C|)	*	*met(C|)	*
!	!	!	!	!LO:TX:a:t=5.	!	!	!
1E	Ple-	0r	.	00r	.	00r	.
2C/	-ni	.	.	.	.	.	.
2C/	s(un)t	.	.	.	.	.	.
=13-	=13-	=13-	=13-	=13-	=13-	=13-	=13-
2F\	Cae-	1A	Ple-	.	.	.	.
4F\	-li	.	.	.	.	.	.
4F\	et	.	.	.	.	.	.
1D	ter-	2F/	-ni	.	.	.	.
.	.	2F/	s(un)t	.	.	.	.
=14-	=14-	=14-	=14-	=14-	=14-	=14-	=14-
!LO:TX:t=P:problem:zbędna pauza w A	!	!LO:TX:t=P:problem:zbędna pauza w A	!	!LO:TX:t=P:problem:zbędna pauza w źródle	!	!LO:TX:t=P:problem:zbędna pauza w A	!
1ryy	.	1ryy	.	1r	.	1ryy	.
1C	-ra	2c\	Cae-	1e	Ple-	0r	.
.	.	4c\	-li	.	.	.	.
.	.	4c\	et	.	.	.	.
=15-	=15-	=15-	=15-	=15-	=15-	=15-	=15-
2F\	glo-	1A	ter-	2c\	-ni	.	.
4F\	-ri-	.	.	2d\	s(un)t	.	.
4F\	-a	.	.	.	.	.	.
!	!	!LO:TX:t=P:problem:kreska pseudotaktowa	!	!	!	!	!
2D/	tu-	1A	-ra	2f\	Cae-	1a	Ple-
2D/	-a	.	.	4f\	-li	.	.
!	!	!	!	!LO:TX:t=P:problem:kreska pseudotaktowa	!	!	!
.	.	.	.	4f\	et	.	.
!LO:LB:g=original	!	!LO:LB:g=original	!	!LO:LB:g=original	!	!	!
=16-	=16-	=16-	=16-	=16-	=16-	=16-	=16-
!	!	!LO:TX:a:t=1.	!	!	!	!	!
1r	.	1r	.	1d	ter-	2f/	-ni
.	.	.	.	.	.	2f/	s(un)t
2r	.	2c\	glo-	1e	-ra	2g/	Cae-
!LO:TX:t=P:problem:kreska pseudotaktowa	!	!	!	!	!	!	!
2C/	Ple-	4c\	-ri-	.	.	4g/	-li
!	!	!	!	!	!	!LO:TX:t=P:problem:kreska pseudotaktowa	!
.	.	4c\	-a	.	.	4g/	et
!	!	!	!	!	!	!LO:LB:g=original	!
=17-	=17-	=17-	=17-	=17-	=17-	=17-	=17-
2F\	-ni	2c\	tu-	2f\	glo-	1a	ter-
!	!	!LO:TX:t=P:problem:kreska pseudotaktowa	!	!	!	!	!
2F\	s(un)t	2c\	-a	4f\	-ri-	.	.
.	.	.	.	4f\	-a	.	.
2F\	Cae-	2r	.	2f\	tu-	1a	-ra
!	!	!	!	!LO:TX:t=P:problem:kreska pseudotaktowa	!	!	!
4F\	-li	2c\	glo-	2f\	-a	.	.
4F\	et	.	.	.	.	.	.
=18-	=18-	=18-	=18-	=18-	=18-	=18-	=18-
2F\	ter-	2.c\	.	2r	.	2a\	glo-
2F\	-ra	.	.	2f\	Ple-	4a\	-ri-
.	.	4c\	-ri-	.	.	4a\	-a
!	!	!LO:TX:t=P:problem:kreska pseudotaktowa	!	!	!	!	!
2.F\	glo-	1c	-a	2f\	-ni	2a\	tu-
!	!	!	!	!LO:TX:t=P:problem:kreska pseudotaktowa	!	!LO:TX:t=P:problem:kreska pseudotaktowa	!
.	.	.	.	2f\	s(un)t	2a\	-a
4F\	-ri-	.	.	.	.	.	.
=19-	=19-	=19-	=19-	=19-	=19-	=19-	=19-
!LO:TX:t=P:problem:kreska pseudotaktowa	!	!	!	!	!	!	!
1F	-a	2.c\	glo-	2f\	Cae-	2r	.
.	.	.	.	4f\	-li	1a\	glo-
.	.	4c\	-ri-	4f\	et	.	.
2D\	Tu-	2c\	-a	2f\	ter-	.	.
!	!	!LO:TX:t=P:problem:kreska pseudotaktowa	!	!LO:TX:t=P:problem:kreska pseudotaktowa	!	!	!
2G\	.	2Bn\	.	2f\	-ra	4g/	-ri-
!	!	!	!	!	!	!LO:TX:t=P:problem:kreska pseudotaktowa	!
.	.	.	.	.	.	4g/	-a
=20-	=20-	=20-	=20-	=20-	=20-	=20-	=20-
*	*	*	*	*	*	*	*ij
2C/	.	1c	tu-	2e\	glo-	2g/	glo-
2F\	.	.	.	4f\	-ri-	4a/	-ri-
.	.	.	.	4f\	-a	4a/	-a
*	*	*	*	*	*	*	*Xij
1C	.	1c	.	(2f\	tu-	1g	tu-
.	.	.	.	2e\)	.	.	.
=21-	=21-	=21-	=21-	=21-	=21-	=21-	=21-
0Fl;	-a.	0cl;	-a.	0fl;	-a.	0al;	-a
!LO:PB:g=original	!	!LO:LB:g=original	!	!LO:LB:g=original	!	!LO:LB:g=original	!
=22||	=22||	=22||	=22||	=22||	=22||	=22||	=22||
*M2/1	*	*M2/1	*	*M2/1	*	*M2/1	*
*met(C|)	*	*met(C|)	*	*met(C|)	*	*met(C|)	*
1F	O-	1A	O-	1c	O-	1f	O-
2F\	-san-	2A/	-san-	2c/	-san-	2f/	-san-
2F\	-na	2A/	-na	2c/	-na	2f/	-na
=23-	=23-	=23-	=23-	=23-	=23-	=23-	=23-
2F\	in	2BnX\	in	2d/	in	2g/	in
2E\	ex-	2c\	ex-	2e\	ex-	2g/	ex-
2D\	-cel-	2c\	-cel-	1f	-cel-	(>2a/	-cel-
!LO:TX:t=P:problem:kreska pseudotaktowa	!	!	!	!	!	!	!
2G\	.	2BnX\	.	.	.	2g/)	.
=24-	=24-	=24-	=24-	=24-	=24-	=24-	=24-
!	!	!LO:TX:t=P:problem:kreska pseudotaktowa	!	!LO:TX:t=P:problem:kreska pseudotaktowa	!	!LO:TX:t=P:problem:kreska pseudotaktowa	!
2C,</	-sis	1c	-sis	1e	-sis	1g	-sis
2C/	O-	.	.	.	.	.	.
!	!	!	!	!LO:TX:a:t=1.	!	!	!
2F\	-san-	2r	.	1r	.	0r	.
2F,<\	-na	2A\	O-	.	.	.	.
=25-	=25-	=25-	=25-	=25-	=25-	=25-	=25-
2E\	in	2c\	-san-	2r	.	.	.
2C/	ex-	2c\	-na	2c/	O-	.	.
1D	-cel-	2c\	in	2f\	-san-	2r	.
!	!	!	!	!LO:TX:t=P:problem:kreska pseudotaktowa	!	!	!
.	.	2B-y\	ex-	2f\	-na	2f/	O-
=26-	=26-	=26-	=26-	=26-	=26-	=26-	=26-
2E\	.	2B-\	-cel-	2g\	in	2cc\	-san-
!LO:TX:t=P:problem:kreska pseudotaktowa	!	!LO:TX:t=P:problem:kreska pseudotaktowa	!	!	!	!	!
2F\	-sis	2A,<\	-sis	2f\	ex-	2cc\	-na
!	!	!	!	!LO:TX:t=P:problem:kreska pseudotaktowa	!	!	!
2D,</	in	2A\	in	1f	-cel-	2cc\	in
!	!	!	!	!	!	!LO:TX:t=P:problem:kreska pseudotaktowa	!
2GG/	ex-	2d\	ex-	.	.	2b-\	ex-
=27-	=27-	=27-	=27-	=27-	=27-	=27-	=27-
2C/	-cel-	[1c	-cel-	2e\	.	2g\	-cel-
2F\	.	.	.	1f	.	2a\	.
!	!	!	!	!	!	!LO:TX:t=P:problem:kreska pseudotaktowa	!
1C	.	1c]	.	.	.	1g	.
.	.	.	.	2e\	.	.	.
=28-	=28-	=28-	=28-	=28-	=28-	=28-	=28-
0Fl;	-sis	0cl;	-sis	0fl;	-sis.	0al;	-sis.
==	==	==	==	==	==	==	==
*-	*-	*-	*-	*-	*-	*-	*-
!!!system-decoration: [(s1,s2,s3,s4)]
!!!RDF**kern: > = above
!!!RDF**kern: < = below
!!!RDF**kern: l = terminal long
!!!ENC: Andrzej Kubiczek
!!!END: 2021-08-06
!!!ENC: Anastazja Marusiak
!!!END: 2021-07-06
